X:1
T:Polka Norvgienne
C:Traditionnel, fichier abc : Bernard Loffet
L:1/8
Q:490
M:2/4
K:G
|: [dG,,]e [dG,]c | [BG,,]d [BG,]G | [dG,,]e [dG,]c | [BG,,]d [BG,]G | [B2D,,2] [A2D,2] | \
 [d2D,,2] D,F | [A2G,,2] [G2G,2] | [eG,,]d [BG,]G | [dG,,]e [dG,]c | [BG,,]d [BG,]G | \
 [dG,,]e [dG,]c | [BG,,]d [BG,]G | [B2D,,2] [A2D,2] | [d2D,,2] D,F | [A2G,,2] [G2G,2] | \
 [G2G,,2] G,2 :|: [g2C,,2] C,2 | [eC,,]g [eC,]c | [d2G,,2] G,2 | [BG,,]d [BG,]G | \
 [B2D,,2] [A2D,2] | [d2D,,2] D,F | [A2G,,2] [G2G,2] | [eG,,]d [BG,]G | [g2C,,2] C,2 | \
 [eC,,]g [eC,]c | [d2G,,2] G,2 | [BG,,]d [BG,]G | [B2D,,2] [A2D,2] | [d2D,,2] D,F | \
 [A2G,,2] [G2G,2] | [G2G,,2] G,2 :| \
K:C
W:Created with TablEdit http://www.tabledit.com/ by Bernard Loffet
